assets/icons/supported_selectable_icons/logos/financial_institutions/704.svg

<svg xmlns="http://www.w3.org/2000/svg" width="512" height="512" fill="none"><path fill="#195AB4" d="M0 0h512v512H0z"/><path fill="#fff" fill-rule="evenodd" d="M377.196 226.272c-28.286 0-41.27 12.012-41.27 39.464v4.213c0 26.048 11.283 38.684 37.869 38.684 8.502 0 17.003-1.56 23.032-6.396v3.12c0 14.662-6.338 19.498-21.177 19.498h-8.882c-5.082.09-7.388.998-10.452 6.062l-.015-.006c-25.487 40.702-69.735 65.571-117.955 65.571-76.938 0-139.53-63.166-139.53-140.808s62.592-140.807 139.53-140.807c54.043 0 103.205 31.584 126.209 80.733h6.41c-23.439-52.629-75.408-86.6-132.619-86.6C158.202 109 93 174.797 93 255.674s65.202 146.675 145.346 146.675c47.133 0 90.628-22.807 117.746-60.648h20.795c27.358 0 41.424-10.451 41.424-37.125v-40.243c0-26.518-13.446-38.061-41.115-38.061m19.787 46.329c0 14.662-5.101 19.186-19.785 19.186-16.54 0-19.785-5.772-19.785-22.775v-2.651c0-16.846 2.936-22.93 19.785-22.93 16.539 0 19.785 5.928 19.785 23.087zm-219.336.779v-76.588l21.64-3.432v39.464c6.183-4.835 15.302-6.552 23.649-6.552 26.276 0 38.333 13.103 38.333 39.932v7.331c0 28.546-12.983 40.089-42.352 40.089-28.286 0-41.27-11.855-41.27-40.244m62.136-6.395c0-17.626-5.256-23.554-20.095-23.554-15.456 0-20.712 5.304-20.712 21.059v8.891c0 17.313 5.256 23.241 20.404 23.241s20.403-5.928 20.403-23.086zm85.478-20.591 3.555-17.471h-30.604v-23.864l-21.486 3.275v71.285c0 24.646 9.583 31.976 35.706 31.976h11.438l3.555-17.313h-13.447c-11.903 0-15.766-2.965-15.766-16.067v-31.821z" clip-rule="evenodd"/></svg>

<svg width="512" height="512" viewBox="0 0 512 512" fill="none" xmlns="http://www.w3.org/2000/svg">
<rect width="512" height="512" fill="#195AB4"/>
<path fill-rule="evenodd" clip-rule="evenodd" d="M377.196 226.272C348.91 226.272 335.926 238.284 335.926 265.736V269.949C335.926 295.997 347.209 308.633 373.795 308.633C382.297 308.633 390.798 307.073 396.827 302.237V305.357C396.827 320.019 390.489 324.855 375.65 324.855H366.768C361.686 324.945 359.38 325.853 356.316 330.917L356.301 330.911C330.814 371.613 286.566 396.482 238.346 396.482C161.408 396.482 98.8157 333.316 98.8157 255.674C98.8157 178.032 161.408 114.867 238.346 114.867C292.389 114.867 341.551 146.451 364.555 195.6H370.965C347.526 142.971 295.557 109 238.346 109C158.202 109 93 174.797 93 255.674C93 336.551 158.202 402.349 238.346 402.349C285.479 402.349 328.974 379.542 356.092 341.701H376.887C404.245 341.701 418.311 331.25 418.311 304.576V264.333C418.311 237.815 404.865 226.272 377.196 226.272ZM396.983 272.601C396.983 287.263 391.882 291.787 377.198 291.787C360.658 291.787 357.413 286.015 357.413 269.012V266.361C357.413 249.515 360.349 243.431 377.198 243.431C393.737 243.431 396.983 249.359 396.983 266.518V272.601ZM177.647 273.38V196.792L199.287 193.36V232.824C205.47 227.989 214.589 226.272 222.936 226.272C249.212 226.272 261.269 239.375 261.269 266.204V273.535C261.269 302.081 248.286 313.624 218.917 313.624C190.631 313.624 177.647 301.769 177.647 273.38ZM239.783 266.985C239.783 249.359 234.527 243.431 219.688 243.431C204.232 243.431 198.976 248.735 198.976 264.49V273.381C198.976 290.694 204.232 296.622 219.38 296.622C234.527 296.622 239.783 290.694 239.783 273.536V266.985ZM325.261 246.394L328.816 228.923H298.212V205.059L276.726 208.334V279.619C276.726 304.265 286.309 311.595 312.432 311.595H323.87L327.425 294.282H313.978C302.075 294.282 298.212 291.317 298.212 278.215V246.394H325.261Z" fill="white"/>
</svg>
